!!!!SEGMENT: pl-cz--iii-555--001-001_raszek-waclaw--requiem-requiem.krn
!!!cenid: 17xx:1080
!!!COM: Raszek, Wacław
!!!COM-rismID:
!!!CDT: <1848->1848
!!!CNT:
!!!OPR: Requiem
!!!OTL: Requiem
!!!OMV: 001
!!!PDT:
!!!AGN: Sacred; Requiem
!!!SMS-siglum: PL-CZ
!!!SMS-shelfmark: III-555
!!!SMS-shelfwork: 001-001 M
!!!SMS-variant:
!!!SMS-altvar:
!!!NIFC-rismSourceID: 300001055
!!!NIFC-islandoraID: pl-cz:38890
!!!URL-pdf-islandora: https://repozytorium.nifc.pl/islandora/object/pl-cz%3A38890/datastream/PDF/view
!!!URL-scan:
!!!ONB-nifc: UWAGA: części Requiem: Requiem, Kyrie, Dies irae, Qui Mariam, Domine Jesu Christe, Sanctus, Pleni sunt, Benedictus, Agnus Dei, Lux aeterna
!!!AIN: 1 alto 1 bass 2 clars 2 cor 1 fagot 1 soprn 1 tenor
!!!key: E-
**kern	**text	**kern	**text	**kern	**text	**kern	**text	**kern	**dynam	**kern	**dynam	**kern	**dynam	**kern	**kern	**dynam
*part9	*part9	*part8	*part8	*part7	*part7	*part6	*part6	*part5	*part5	*part4	*part4	*part3	*part3	*part2	*part1	*part1
*staff9	*staff9	*staff8	*staff8	*staff7	*staff7	*staff6	*staff6	*staff5	*	*staff4	*	*staff3	*	*staff2	*staff1	*
*IGcoro	*	*IGcoro	*	*IGcoro	*	*IGcoro	*	*IGacmp	*	*IGacmp	*	*IGacmp	*	*IGacmp	*IGacmp	*
*ICvox	*	*ICvox	*	*ICvox	*	*ICvox	*	*ICbras	*	*ICbras	*	*ICww	*	*ICww	*ICww	*
*Ibass	*	*Itenor	*	*Ialto	*	*Isoprn	*	*Icor	*	*Icor	*	*Ifagot	*	*Iclars	*Iclars	*
*I"Baſso.	*	*I"Tenore.	*	*I"Alto.	*	*I"Canto	*	*I"Cornu IIdo in Dis.	*	*I"Corno 1mo in dis	*	*I"Fagoto vel Violone.	*	*I"Clarinetto 2do in B.	*I"Clarinetto Imo in B.	*
*I'B	*	*I'T	*	*I'A	*	*I'S	*	*I'cor 2 in E|b	*	*I'cor 1 in E|b	*	*I'fag	*	*I'cl 2	*I'cl 1	*
*clefF4	*	*clefC4	*	*clefC3	*	*clefC1	*	*clefG2	*	*clefG2	*	*clefF4	*	*clefG2	*clefG2	*
*	*	*	*	*	*	*	*	*ITrd5c9	*	*ITrd5c9	*	*	*	*ITrd1c2	*ITrd1c2	*
*k[b-e-a-]	*	*k[e-b-a-]	*	*k[e-b-a-]	*	*k[b-e-a-]	*	*k[b-e-a-]	*	*k[b-e-a-]	*	*k[b-e-a-]	*	*k[b-e-a-]	*k[b-e-a-]	*
*E-:	*	*E-:	*	*E-:	*	*E-:	*	*E-:	*	*E-:	*	*E-:	*	*E-:	*E-:	*
*M2/4	*	*M2/4	*	*M2/4	*	*M2/4	*	*M2/4	*	*M2/4	*	*M2/4	*	*M2/4	*M2/4	*
*	*	*	*	*	*	*	*	*	*	*	*	*	*	*all\right	*	*
*2\right	*	*2\right	*	*2\right	*	*2\right	*	*2\right	*	*2\right	*	*2\right	*	*2\right	*2\right	*
=1	=1	=1	=1	=1	=1	=1	=1	=1	=1	=1	=1	=1	=1	=1	=1	=1
!	!	!	!	!	!	!	!	!	!	!	!	!LO:TX:a:t=adagio	!	!	!	!
!LO:TX:a:t=adagio	!	!LO:TX:a:t=adagio	!	!LO:TX:a:t=adagio	!	!LO:TX:a:t=adagio	!	!LO:TX:a:t=Adagio.:rj	!	!LO:TX:a:t=Adagio	!	!LO:TX:t=P:problem=mixed beam	!	!LO:TX:a:t=adagio	!LO:TX:a:t=adagio	!
4.E-\	Re-	4.B-\	Re-	4.g\	Re-	4.ee-\	Re-	4.G/	.	4.e-\	.	8EE-/L	.	4.g/	4.ee-\	.
.	.	.	.	.	.	.	.	.	.	.	.	8E-\J	.	.	.	.
.	.	.	.	.	.	.	.	.	.	.	.	8BB-/L	.	.	.	.
8E-\	-qui-	8B-\	-qui-	8g\	-qui-	8ee-\	-qui-	8G/	.	8e-\	.	8GG/J	.	8g/	8ee-\	.
=2	=2	=2	=2	=2	=2	=2	=2	=2	=2	=2	=2	=2	=2	=2	=2	=2
!	!	!	!	!	!	!	!	!LO:N:vis=4	!	!	!	!LO:TX:t=P:problem=mixed beam	!	!	!	!
4E-\	-em	4B-\	-em	4g\	-em	4ee-\	-em	4.G/	.	4e-\	.	8EE-/L	.	4g/	4ee-\	.
.	.	.	.	.	.	.	.	.	.	.	.	8E-\J	.	.	.	.
8r	.	8r	.	8r	.	8r	.	.	.	8r	.	8r	.	16g/LL	(16ee-\LL	.
.	.	.	.	.	.	.	.	.	.	.	.	.	.	16f/	16dd\	.
.	.	.	.	.	.	.	.	8qG/	.	.	.	.	.	.	.	.
8E-\	e-	8e-\	e-	8g\	e-	8ee-\	e-	8E-/	.	8e-\	.	8E-\	.	16f/	16dd\	.
.	.	.	.	.	.	.	.	.	.	.	.	.	.	16g/JJ	16ee-\JJ)	.
=3	=3	=3	=3	=3	=3	=3	=3	=3	=3	=3	=3	=3	=3	=3	=3	=3
*	*	*	*	*	*	*	*	*	*	*	*	*tremolo	*	*	*	*
2E-\	-ter-	2e-\	-ter-	2a-\	-ter-	2cc\	-ter-	2E-/	.	8e-\L	.	8E-\L	.	4a-\	4cc\	.
.	.	.	.	.	.	.	.	.	.	8e-\	.	8E-\	.	.	.	.
.	.	.	.	.	.	.	.	.	.	8e-\	.	8E-\	.	8cc\L	16ee-\LL	.
.	.	.	.	.	.	.	.	.	.	.	.	.	.	.	16cc\	.
.	.	.	.	.	.	.	.	.	.	8e-\J	.	8E-\J	.	16cc\L	16aa-\	.
.	.	.	.	.	.	.	.	.	.	.	.	.	.	16a-\JJ	16cc\JJ	.
=4	=4	=4	=4	=4	=4	=4	=4	=4	=4	=4	=4	=4	=4	=4	=4	=4
*	*	*	*	*	*	*	*	*	*	*tremolo	*	*	*	*	*	*
.	.	.	.	8qqa-/	.	8qqcc/	.	.	.	.	.	.	.	.	8qqcc/	.
4E-\	-nam	4e-\	-nam	4g\	-nam	4b-\	-nam	2E-/	.	8e-\L	.	8E-\L	.	4g/	4b-\	.
.	.	.	.	.	.	.	.	.	.	8e-\	.	8E-\	.	.	.	.
8r	.	8r	.	8r	.	8r	.	.	.	8e-\	.	8E-\	.	16g/LL	(16ee-\LL	.
.	.	.	.	.	.	.	.	.	.	.	.	.	.	16f/	16dd\	.
*	*ij	*	*ij	*	*ij	*	*ij	*	*	*	*	*	*	*	*	*
8E-\	e-	8e-\	e-	8g\	e-	8ee-\	e-	.	.	8e-\J	.	8E-\J	.	16f/	16dd\	.
.	.	.	.	.	.	.	.	.	.	.	.	.	.	16g/JJ	16ee-\JJ)	.
=5	=5	=5	=5	=5	=5	=5	=5	=5	=5	=5	=5	=5	=5	=5	=5	=5
2E-\	-ter-	2e-\	-ter-	2a-\	-ter-	2cc\	-ter-	2E-/	.	8e-\L	.	8E-\L	.	4a-\	4cc\	.
.	.	.	.	.	.	.	.	.	.	8e-\	.	8E-\	.	.	.	.
.	.	.	.	.	.	.	.	.	.	8e-\	.	8E-\	.	16cc\LL	16ee-\LL	.
.	.	.	.	.	.	.	.	.	.	.	.	.	.	16a-\	16cc\	.
.	.	.	.	.	.	.	.	.	.	8e-\J	.	8E-\J	.	16cc\	16ee-\	.
.	.	.	.	.	.	.	.	.	.	.	.	.	.	16a-\JJ	16cc\JJ	.
*	*	*	*	*	*	*	*	*	*	*Xtremolo	*	*Xtremolo	*	*	*	*
=6	=6	=6	=6	=6	=6	=6	=6	=6	=6	=6	=6	=6	=6	=6	=6	=6
!	!	!	!	!	!	!	!	!	!	!	!	!LO:TX:t=P:problem=mixed beam	!	!	!	!
.	.	.	.	8qqa-/	.	16qqcc/	.	.	.	.	.	.	.	8qqa-/	8qqcc/	.
4E-\	-nam	4e-\	-nam	4g\	-nam	4b-\	-nam	4E-/	.	4e-\	.	8E-\L	.	4g/	4b-\	.
*	*	*	*	*	*	*	*Xij	*	*	*	*	*	*	*	*	*
.	.	.	.	.	.	.	.	.	.	.	.	8EE-/J	.	.	.	.
4r	.	4r	.	4r	.	8b-\	do-	4r	.	4r	.	4r	.	4r	8b-\L	.
.	.	.	.	.	.	8b-\	-na	.	.	.	.	.	.	.	8b-\J	.
*	*Xij	*	*Xij	*	*Xij	*	*	*	*Xij	*	*	*	*	*	*	*
=7	=7	=7	=7	=7	=7	=7	=7	=7	=7	=7	=7	=7	=7	=7	=7	=7
4.E-\	Do-	4.B-\	Do-	4.g\	Do-	4.ee-\	e-	2G/	.	2e-\	.	8E-\L	.	16G/LL	4.ee-\	.
.	.	.	.	.	.	.	.	.	.	.	.	.	.	16B-/	.	.
.	.	.	.	.	.	.	.	.	.	.	.	8G\	.	16G/	.	.
.	.	.	.	.	.	.	.	.	.	.	.	.	.	16B-/JJ	.	.
*	*	*	*	*	*	*	*	*	*	*	*	*	*	*rep	*	*
.	.	.	.	.	.	.	.	.	.	.	.	8B-\	.	16G/LL	.	.
.	.	.	.	.	.	.	.	.	.	.	.	.	.	16B-/	.	.
8E-\	-na	8B-\	-na	8g\	-na	8ee-\	-is	.	.	.	.	8E-\J	.	16G/	8ee-\	.
.	.	.	.	.	.	.	.	.	.	.	.	.	.	16B-/JJ	.	.
*	*	*	*	*	*	*	*	*	*	*	*	*	*	*Xrep	*	*
=8	=8	=8	=8	=8	=8	=8	=8	=8	=8	=8	=8	=8	=8	=8	=8	=8
!	!	!	!	!	!	!	!	!	!	!	!	!LO:TX:t=P:problem=mixed beam	!	!	!	!
4B-\	e-	4B-\	e-	4g\	e-	4ee-\	Do-	2B-/	.	2f\	.	8BB-/L	.	16F/LL	4ee-\	.
.	.	.	.	.	.	.	.	.	.	.	.	.	.	16B-/	.	.
.	.	.	.	.	.	.	.	.	.	.	.	8B-\	.	16A-/	.	.
.	.	.	.	.	.	.	.	.	.	.	.	.	.	16B-/JJ	.	.
*	*	*	*	*	*	*	*	*	*	*	*	*	*	*rep	*	*
4BB-/	-js	4B-\	-js-	4f\	-is	4dd\	.	.	.	.	.	8BB-/	.	16F/LL	4dd\	.
.	.	.	.	.	.	.	.	.	.	.	.	.	.	16B-/	.	.
.	.	.	.	.	.	.	.	.	.	.	.	8B-\J	.	16A-/	.	.
.	.	.	.	.	.	.	.	.	.	.	.	.	.	16B-/JJ	.	.
*	*	*	*	*	*	*	*	*	*	*	*	*	*	*Xrep	*	*
=9	=9	=9	=9	=9	=9	=9	=9	=9	=9	=9	=9	=9	=9	=9	=9	=9
!	!	!	!	!	!	!	!	!	!	!	!	!	!	!LO:LB:g=original	!	!
!	!	!	!	!	!	!	!	!	!	!	!	!	!	!LO:TX:t=P:\left:problem	!	!
4.E-\	Do-	4.B-\	-Do-	4.g\	Do-	4.ee-\	.	2e-\	.	2g\	.	8E-\L	.	16G/LL	4ee-\	.
!	!	!	!	!	!	!	!	!	!	!	!	!	!	!LO:TX:t=P:\left:problem	!	!
.	.	.	.	.	.	.	.	.	.	.	.	.	.	16B-/	.	.
.	.	.	.	.	.	.	.	.	.	.	.	8G\	.	16G/	.	.
.	.	.	.	.	.	.	.	.	.	.	.	.	.	16B-/JJ	.	.
*	*	*	*	*	*	*	*	*	*	*	*	*	*	*rep	*	*
.	.	.	.	.	.	.	.	.	.	.	.	8B-\	.	16G/LL	16gg\LL	.
.	.	.	.	.	.	.	.	.	.	.	.	.	.	16B-/	16ee-\	.
8E-\	-mi-	8B-\	-mi-	8g\	-na	8ee-\	-mi-	.	.	.	.	8E-\J	.	16G/	16bb-\	.
.	.	.	.	.	.	.	.	.	.	.	.	.	.	16B-/JJ	32gg\L	.
.	.	.	.	.	.	.	.	.	.	.	.	.	.	.	32ee-\JJJ	.
*	*	*	*	*	*	*	*	*	*	*	*	*	*	*Xrep	*	*
=10	=10	=10	=10	=10	=10	=10	=10	=10	=10	=10	=10	=10	=10	=10	=10	=10
!	!	!	!	!	!	!	!	!	!	!	!	!LO:TX:t=P:problem=mixed beam	!	!	!LO:LB:g=original	!
2BB-/	-ne	2B-\	-ne	4g\	e-	(>4ee-\	-ne	8B-/L	.	8f\L	.	8BB-/L	.	16F/LL	4ee-\	.
.	.	.	.	.	.	.	.	.	.	.	.	.	.	16B-/	.	.
.	.	.	.	.	.	.	.	8B-/	.	8f\	.	8B-\J	.	16F/	.	.
.	.	.	.	.	.	.	.	.	.	.	.	.	.	16B-/JJ	.	.
!	!	!	!	!	!	!	!	!	!	!	!	!LO:TX:t=P:problem=mixed beam	!	!	!	!
.	.	.	.	4f\	-is	4dd\)	.	8B-/	.	8f\	.	8BB-/L	.	8F/	4dd\	.
.	.	.	.	.	.	.	.	8B-/J	.	8f\J	.	8B-\J	.	8r	.	.
=11	=11	=11	=11	=11	=11	=11	=11	=11	=11	=11	=11	=11	=11	=11	=11	=11
*	*	*	*	*	*	*	*	*	*	*tremolo	*	*	*	*	*Xtuplet	*
!	!	!	!	!	!	!	!	!	!LO:DY:a:t=p.	!LO:LB:g=original	!LO:DY:a:t=p&colon;	!LO:TX:t=P:problem=mixed beam	!	!LO:TX:t=P:problem=brak taktu	!	!
4r	.	4r	.	4r	.	4r	.	8f\L	p	8f\L	p	8F\L	.	2ryy	8r	.
.	.	.	.	.	.	.	.	8f\	.	8f\	.	8FF/	.	.	24ee-'\LL	p
.	.	.	.	.	.	.	.	.	.	.	.	.	.	.	24ee-'\	.
.	.	.	.	.	.	.	.	.	.	.	.	.	.	.	24ee-'\JJ	.
4F\	et	4c\	et	4f\	&	4ee-\	et	8f\	.	8f\	.	8AAn/	.	.	16ff\LL	.
.	.	.	.	.	.	.	.	.	.	.	.	.	.	.	16ee-\	.
.	.	.	.	.	.	.	.	8f\J	.	8f\J	.	8C/J	.	.	16ee-\	.
.	.	.	.	.	.	.	.	.	.	.	.	.	.	.	16ee-\JJ	.
=12	=12	=12	=12	=12	=12	=12	=12	=12	=12	=12	=12	=12	=12	=12	=12	=12
*	*	*	*	*	*	*	*	*tremolo	*	*	*	*	*	*	*	*
!	!	!	!	!	!	!	!	!	!	!	!	!LO:LB:g=original	!	!	!	!
!	!	!	!	!LO:LB:g=original	!	!LO:LB:g=original	!	!	!	!	!	!LO:TX:t=P:problem=mixed beam	!	!LO:SIC:v:s=16Bn	!	!
4An\	lux	4c\	lux	4f\	lux	4ee-\	lux	8f\L	.	8f\L	.	8F\L	.	16A#X/LL	16cc\LL	.
.	.	.	.	.	.	.	.	.	.	.	.	.	.	16c/	16ee-\	.
.	.	.	.	.	.	.	.	8f\	.	8f\	.	8FF/	.	16c/	16ee-\	.
.	.	.	.	.	.	.	.	.	.	.	.	.	.	16c/JJ	16ee-\JJ	.
!	!	!	!	!	!	!	!	!	!	!	!	!LO:SIC:v:s=8AAn	!	!LO:SIC:v:s=16Bn	!	!
4A\	per-	4c\	per-	4f\	per-	4ee-\	per-	8f\	.	8f\	.	8AA-/	.	16A#X/LL	16ff\LL	.
.	.	.	.	.	.	.	.	.	.	.	.	.	.	16c/	16ee-\	.
.	.	.	.	.	.	.	.	8f\J	.	8f\J	.	8FF/J	.	16c/	16ee-\	.
.	.	.	.	.	.	.	.	.	.	.	.	.	.	16c/JJ	16ee-\JJ	.
=	=	=	=	=	=	=	=	=	=	=	=	=	=	=	=	=
!	!	!	!	!	!	!	!	!	!	!	!	!LO:TX:t=P:problem=zbędna powtórka t.12	!	!	!	!
!LO:TX:t=P:problem=zbędny takt fag	!	!LO:TX:t=P:problem=zbędny takt fag	!	!LO:TX:t=P:problem=zbędny takt fag	!	!LO:TX:t=P:problem=zbędny takt fag	!	!LO:TX:t=P:problem=zbędny takt fag	!	!LO:TX:t=P:problem=zbędny takt fag	!	!LO:TX:t=P:problem=mixed beam	!	!LO:TX:t=P:problem=zbędny takt fag	!LO:TX:t=P:problem=zbędny takt fag	!
2ryy	.	2ryy	.	2ryy	.	2ryy	.	2ryy	.	2ryy	.	8F\L	.	2ryy	2ryy	.
.	.	.	.	.	.	.	.	.	.	.	.	8FF/	.	.	.	.
!	!	!	!	!	!	!	!	!	!	!	!	!LO:SIC:v:s=8AAn	!	!	!	!
.	.	.	.	.	.	.	.	.	.	.	.	8AA-/	.	.	.	.
.	.	.	.	.	.	.	.	.	.	.	.	8FF/J	.	.	.	.
=13	=13	=13	=13	=13	=13	=13	=13	=13	=13	=13	=13	=13	=13	=13	=13	=13
!LO:LB:g=original	!	!	!	!	!	!	!	!	!	!	!	!LO:TX:t=P:problem=mixed beam	!	!	!	!
8.B-\	-pe-	8.B-\	-pe-	8.f\	-pe-	8.dd\	-pe-	8f\L	.	8f\L	.	8BB-/L	.	16B-/LL	16dd\LL	.
.	.	.	.	.	.	.	.	.	.	.	.	.	.	16d/	16ff\	.
.	.	.	.	.	.	.	.	8f\	.	8f\	.	8B-\	.	16d/	16ff\	.
16B-\	-tu-	16B-\	-tu-	16f\	-tu-	16dd\	-tu-	.	.	.	.	.	.	16d/JJ	16ff\JJ	.
4BB-/	-a	4B-\	-a	4f\	-a	4dd\	-a	8f\	.	8f\	.	8BB-/	.	16B-/LL	16dd\LL	.
.	.	.	.	.	.	.	.	.	.	.	.	.	.	16d/	16ff\	.
.	.	.	.	.	.	.	.	8f\J	.	8f\J	.	8B-\J	.	16d/	16ff\	.
.	.	.	.	.	.	.	.	.	.	.	.	.	.	16d/JJ	16ff\JJ	.
=14	=14	=14	=14	=14	=14	=14	=14	=14	=14	=14	=14	=14	=14	=14	=14	=14
!	!	!LO:LB:g=original	!	!	!	!	!	!LO:LB:g=original	!	!	!	!	!	!	!	!
4.An\	lu-	4.c\	lu-	4.f\	lu-	4.ee-\	lu-	8f\L	.	8f\L	.	8F\L	.	16A/LL	16ff\LL	.
.	.	.	.	.	.	.	.	.	.	.	.	.	.	16c/	16ee-\	.
.	.	.	.	.	.	.	.	8f\	.	8f\	.	8An\	.	16c/	16ee-\	.
.	.	.	.	.	.	.	.	.	.	.	.	.	.	16c/JJ	16ee-\JJ	.
.	.	.	.	.	.	.	.	8f\	.	8f\	.	8c\	.	16A/LL	16ff\LL	.
.	.	.	.	.	.	.	.	.	.	.	.	.	.	16c/	16ee-\	.
8A\	-ce-	8c\	-ce-	8f\	-ce-	8ee-\	-ce-	8f\J	.	8f\J	.	8F\J	.	16c/	16ee-\	.
.	.	.	.	.	.	.	.	.	.	.	.	.	.	16c/JJ	16ee-\JJ	.
*	*	*	*	*	*	*	*	*Xtremolo	*	*Xtremolo	*	*	*	*	*	*
=15	=15	=15	=15	=15	=15	=15	=15	=15	=15	=15	=15	=15	=15	=15	=15	=15
!	!	!	!	!	!	!	!	!	!	!	!	!	!LO:DY:t=for	!LO:TX:t=P:problem=mixed beam	!	!
8B-\	-at	8B-\	-at	8f\	-at	8dd\	-at	8B-/	.	8f\	.	8BB-/	f	16B-/LL	16dd\LL	.
.	.	.	.	.	.	.	.	.	.	.	.	.	.	16b-\	16ff\	f
8r	.	8r	.	8r	.	8r	.	8r	.	8r	.	8r	.	16dd\	16ff\	.
.	.	.	.	.	.	.	.	.	.	.	.	.	.	16dd\JJ	16ff\JJ	.
!	!	!	!	!	!	!	!	!	!LO:DY:a:t=for	!	!	!LO:TX:t=P:problem=mixed beam	!	!	!	!
4r	.	4r	.	4r	.	4r	.	8B-/L	f	8f\L	.	8BB-/L	.	16dd\LL	16ff\LL	.
.	.	.	.	.	.	.	.	.	.	.	.	.	.	16ff\	16aa-X\	.
.	.	.	.	.	.	.	.	16B-/L	.	16f\L	.	8B-\J	.	16ff\	16aa-\	.
.	.	.	.	.	.	.	.	16B-/JJ	.	16f\JJ	.	.	.	16ff\JJ	16aa-\JJ	.
=16	=16	=16	=16	=16	=16	=16	=16	=16	=16	=16	=16	=16	=16	=16	=16	=16
!	!	!	!	!	!	!	!	!	!	!	!	!	!	!LO:TX:t=P:problem=mixed beam	!	!
8r	.	8r	.	8r	.	8r	.	8e-\	.	8g\	.	8E-\	.	8ee-\L	8gg\L	.
*	*ij	*	*ij	*	*ij	*	*ij	*	*	*	*	*	*	*	*	*
8E-\	lu-	8B-\	lu-	8g\	lu-	8ee-\	lu-	8r	.	8r	.	8r	.	8g/	8ee-\	.
8E-\	-ce-	8c\	-ce-	8g\	-ce-	8cc\	-ce-	8e-\L	.	8g\L	.	8E-\L	.	8g/	8cc\	.
8En\	-at	8c\	-at	8g\	-at	8b-\	-at	8g\J	.	8g\J	.	8En\J	.	8g/J	8b-\J	.
*	*Xij	*	*Xij	*	*Xij	*	*Xij	*	*	*	*	*	*	*	*	*
=17	=17	=17	=17	=17	=17	=17	=17	=17	=17	=17	=17	=17	=17	=17	=17	=17
!	!	!	!	!	!	!	!	!	!	!	!	!	!	!	!LO:LB:g=original	!
8F\	e-	8c\	e-	8g\	e-	8b-\	e-	8f\L	.	8f\L	.	8F\L	.	8g/L	8b-\L	.
8F\	-js	8c\	-js	8f\	-is	8an\	-is	16f\L	.	16f\L	.	16C\L	.	8f/J	8a\J	.
.	.	.	.	.	.	.	.	16f\JJ	.	16f\JJ	.	16AAn\JJ	.	.	.	.
!	!	!	!	!	!	!	!	!	!	!	!	!LO:TX:t=P:problem=mixed beam	!	!	!	!
8r	.	8r	.	8r	.	8r	.	8f\	.	8f\	.	8FF/L	.	8r	8r	.
!	!	!	!	!	!	!	!	!	!	!	!	!	!	!LO:TX:t=P:\left:problem	!	!
8F\	et	8c\	et	8f\	et	8cc\	et	8r	.	8r	.	8F\J	.	8f/	8cc\	.
=18	=18	=18	=18	=18	=18	=18	=18	=18	=18	=18	=18	=18	=18	=18	=18	=18
*	*	*	*	*	*	*	*	*	*	*	*	*	*	*tremolo	*	*
!	!	!	!	!	!	!	!	!	!	!	!	!	!	!LO:LB:g=original	!	!
8B-\	lux	8B-\	lux	8f\	lux	8dd\	lux	8f\L	.	8f\L	.	8BB-/L	.	8f/L	16dd\LL	.
.	.	.	.	.	.	.	.	.	.	.	.	.	.	.	16b-\	.
8An\	per-	8c\	per-	8f\	per-	8cc\	per-	8f\	.	8f\	.	8AAn/	.	8f/	16ee-\	.
.	.	.	.	.	.	.	.	.	.	.	.	.	.	.	16cc\JJ	.
8B-\	-pe-	8B-\	-pe-	8f\	-pe-	8dd\	-pe-	8f\	.	8f\	.	8BB-/	.	8f/	16dd\LL	.
.	.	.	.	.	.	.	.	.	.	.	.	.	.	.	16b-\	.
*	*	*	*	*	*	*	*	*	*	*	*	*	*	*Xtremolo	*	*
16A\	-tu-	16c\	-tu-	16f\	-tu-	16cc\	-tu-	8f\J	.	8f\J	.	8AA/J	.	8f/J	16ee-\	.
16A\	-a	16c\	-a	16f\	-a	16cc\	-a	.	.	.	.	.	.	.	16cc\JJ	.
=19	=19	=19	=19	=19	=19	=19	=19	=19	=19	=19	=19	=19!|:	=19	=19	=19	=19
!	!	!	!	!	!	!	!	!	!	!	!	!LO:TX:t=P:problem=mixed beam	!	!	!	!
8B-\	lu-	16B-\LL	lu-	8f\	lu-	16dd\LL	lu-	8B-/L	.	8f\L	.	8BB-/L	.	16b-\LL	16dd\LL	.
.	.	16d\JJ	.	.	.	16ff\JJ	.	.	.	.	.	.	.	16dd\	16ff\	.
16E-\	-ce-	16e-\	-ce-	16g\	-ce-	16gg\	-ce-	8e-/J	.	8g\	.	8E-/	.	16ee-\	16gg\	.
16E-\	-at	16c\	-at	16g\	-at	16ee-\	-at	.	.	.	.	.	.	16cc\JJ	16ee-\JJ	.
4F\	e-	8B-\L	e-	4f\	e-	8dd\L	e-	8f\L	.	8f\	.	8F/	.	8b-\L	8dd\L	.
.	.	8A-\J	.	.	.	8cc\J	.	8f\J	.	8f\J	.	8FF/J	.	8a\J	8cc\J	.
=20	=20	=20	=20	=20	=20	=20	=20	=20	=20	=20	=20	=20	=20	=20	=20	=20
!	!	!	!	!LO:LB:g=original	!	!LO:LB:g=original	!	!	!	!	!	!LO:TX:t=P:problem=mixed beam	!	!	!	!
4BB-/	-is	4B-\	-is	4f\	-is	4b-\	-is	4B-/	.	4f\	.	8BB-\L	.	4b-\	4b-\	.
.	.	.	.	.	.	.	.	.	.	.	.	8B-\J	.	.	.	.
4r	.	4r	.	4r	.	4r	.	8B-/L	.	8f\L	.	4r	.	8dd\L	8ff\L	.
.	.	.	.	.	.	.	.	8B-/J	.	8f\J	.	.	.	8dd\J	8ff\J	.
=21	=21	=21	=21	=21	=21	=21	=21	=21	=21	=21	=21	=21:|!	=21	=21	=21	=21
!	!	!	!	!	!	!	!	!	!	!	!	!LO:TX:t=P:problem=mixed beam	!	!	!	!
!LO:TX:a:t=3	!	!LO:TX:a:t=3	!	!LO:TX:a:t=3	!	!LO:TX:a:t=3	!	!	!	!	!	!LO:TX:t=P:problem=tt.21-22 zapisane repetycją	!	!	!	!
1r	.	1r	.	1r	.	1r	.	8B-\L	.	8f\L	.	8BB-/Lyy	.	16dd\LL	16ff\LL	.
.	.	.	.	.	.	.	.	.	.	.	.	.	.	16b-\	16dd\	.
.	.	.	.	.	.	.	.	8e-\J	.	8g\	.	8E-/yy	.	16ee-\	16gg\	.
.	.	.	.	.	.	.	.	.	.	.	.	.	.	16cc\JJ	16ee-\JJ	.
.	.	.	.	.	.	.	.	8f\L	.	8f\	.	8F/yy	.	8b-\L	8dd\L	.
!	!	!	!	!	!	!	!	!	!	!	!	!	!	!LO:SIC:v:s=8bn	!	!
.	.	.	.	.	.	.	.	8f\J	.	8f\J	.	8FF/Jyy	.	8a-\J	8cc\J	.
=22	=22	=22	=22	=22	=22	=22	=22	=22	=22	=22	=22	=22	=22	=22	=22	=22
!	!	!	!	!	!	!	!	!	!	!LO:LB:g=original	!	!LO:TX:t=P:problem=mixed beam	!	!	!	!
.	.	.	.	.	.	.	.	4B-/	.	4f\	.	8BB-\Lyy	.	4b-\	4b-\	.
.	.	.	.	.	.	.	.	.	.	.	.	8B-\Jyy	.	.	.	.
.	.	.	.	.	.	.	.	4r	.	4r	.	4ryy	.	16b-\LL	16dd\LL	.
.	.	.	.	.	.	.	.	.	.	.	.	.	.	16cc\	16ee-\	.
.	.	.	.	.	.	.	.	.	.	.	.	.	.	16dd\	16ff\	.
.	.	.	.	.	.	.	.	.	.	.	.	.	.	16ee-\JJ	16gg\JJ	.
=23	=23	=23	=23	=23	=23	=23	=23	=23	=23	=23	=23	=23	=23	=23	=23	=23
!	!	!	!	!	!	!	!	!LO:TX:a:t=1.	!	!LO:TX:a:t=1.	!	!LO:LB:g=original	!	!	!	!
2r	.	2r	.	2r	.	2r	.	2r	.	2r	.	8BB-/	.	16ff\LL	16aa-X\LL	.
.	.	.	.	.	.	.	.	.	.	.	.	.	.	16dd\	16ff\	.
.	.	.	.	.	.	.	.	.	.	.	.	8r	.	16dd\	16ff\	.
.	.	.	.	.	.	.	.	.	.	.	.	.	.	16b-\JJ	16dd\JJ	.
!	!	!	!	!	!	!	!	!	!	!	!	!	!	!LO:TX:t=P:problem=mixed beam	!	!
.	.	.	.	.	.	.	.	.	.	.	.	8r	.	16b-\LL	16dd\LL	.
.	.	.	.	.	.	.	.	.	.	.	.	.	.	16d/	16b-\	.
.	.	.	.	.	.	.	.	.	.	.	.	8BB-/	.	16d/	16b-\	.
.	.	.	.	.	.	.	.	.	.	.	.	.	.	16f/JJ	16a-\JJ	.
=24	=24	=24	=24	=24	=24	=24	=24	=24	=24	=24	=24	=24	=24	=24	=24	=24
!	!	!	!	!	!	!	!	!	!	!	!	!	!	!	!LO:TX:t=P:problem=mixed beam	!
4E-\	et	4B-\	et	4g\	et	4ee-\	et	8E-/L	.	8e-\L	.	8E-\L	.	8.e-/L	8.g/L	.
.	.	.	.	.	.	.	.	8E-/J	.	8e-\J	.	8E-\	.	.	.	.
.	.	.	.	.	.	.	.	.	.	.	.	.	.	16g/Jk	16ee-\Jk	.
!LO:LB:g=original	!	!	!	!	!	!	!	!	!	!	!	!	!	!	!	!
8E-\	lux	8B-\	lux	8g\	lux	8ee-\	lux	8r	.	8r	.	8E-\	.	16g/LL	16ee-\LL	.
.	.	.	.	.	.	.	.	.	.	.	.	.	.	16f/	16dd\	.
8E-\	per-	8B-\	per-	8g\	pe-	8ee-\	per-	8E-/	.	8e-\	.	8E-\J	.	16f/	16dd\	.
.	.	.	.	.	.	.	.	.	.	.	.	.	.	16g/JJ	16ee-\JJ	.
=25	=25	=25	=25	=25	=25	=25	=25	=25	=25	=25	=25	=25	=25	=25	=25	=25
*	*	*	*	*	*	*	*	*	*	*	*	*tremolo	*	*	*	*
!	!	!LO:LB:g=original	!	!	!	!	!	!	!	!	!	!	!	!	!LO:LB:g=original	!
4.E-\	-pe-	4.c\	-pe-	4.a-\	-pe-	4.cc\	-pe-	2E-/	.	8e-\L	.	8E-\L	.	4a-\	4cc\	.
.	.	.	.	.	.	.	.	.	.	8e-\	.	8E-\	.	.	.	.
.	.	.	.	.	.	.	.	.	.	8e-\	.	8E-\	.	8cc\L	16ee-\LL	.
.	.	.	.	.	.	.	.	.	.	.	.	.	.	.	16cc\	.
*	*	*	*	*	*	*	*	*	*	*	*	*Xtremolo	*	*	*	*
8E-\	-tu-	8c\	-tu-	8a-\	-tu-	8cc\	-tu-	.	.	8e-\J	.	8E-\J	.	8a-\J	16aa-\	.
.	.	.	.	.	.	.	.	.	.	.	.	.	.	.	16cc\JJ	.
=26	=26	=26	=26	=26	=26	=26	=26	=26	=26	=26	=26	=26	=26	=26	=26	=26
.	.	8qqc/	.	8qqa-/	.	.	.	.	.	.	.	.	.	.	.	.
!	!	!	!	!	!	!	!	!LO:LB:g=original	!	!	!	!	!	!	!	!
2E-\	-a	2B-\	-a	2g\	-a	(4cc\	a	2E-/	.	8e-\L	.	8E-\L	.	4a-\	4cc\	.
.	.	.	.	.	.	.	.	.	.	8e-\	.	8E-\J	.	.	.	.
.	.	.	.	.	.	4b-\)	.	.	.	8e-\	.	16E-\LL	.	4g\	4b-\	.
.	.	.	.	.	.	.	.	.	.	.	.	16G\	.	.	.	.
.	.	.	.	.	.	.	.	.	.	8e-\J	.	16B-\	.	.	.	.
.	.	.	.	.	.	.	.	.	.	.	.	16G\JJ	.	.	.	.
=27	=27	=27	=27	=27	=27	=27	=27	=27	=27	=27	=27	=27	=27	=27	=27	=27
4E-\	lu-	4B-\	lu-	4g\	lu-	4ee-\	lu-	4G/	.	4e-\	.	8E-\L	.	4g/	4ee-\	.
.	.	.	.	.	.	.	.	.	.	.	.	8G\	.	.	.	.
8G\	-ce-	8B-\	-ce-	8g\	-ce-	8ee-\	-ce-	8e-\L	.	8g\L	.	8B-\	.	8.g/L	16ee-\LL	.
.	.	.	.	.	.	.	.	.	.	.	.	.	.	.	32dd\L	.
.	.	.	.	.	.	.	.	.	.	.	.	.	.	.	32ee-\J	.
8E-\	-at	8B-\	-at	8g\	-at	8ee-\	-at	8e-\J	.	8g\J	.	8E-\J	.	.	16ff\	.
.	.	.	.	.	.	.	.	.	.	.	.	.	.	16g/Jk	16ee-\JJ	.
=28	=28	=28	=28	=28	=28	=28	=28	=28	=28	=28	=28	=28	=28	=28	=28	=28
!	!	!	!	!	!	!	!	!	!	!	!	!LO:TX:t=P:problem=mixed beam	!	!	!	!
4B-\	e-	4B-\	e-	4g\	e-	4ee-\	e-	4e-\	.	4g\	.	8BB-/L	.	4g/	4ee-\	.
.	.	.	.	.	.	.	.	.	.	.	.	8B-\J	.	.	.	.
4BB-/	-js	4B-\	-is	4f\	-is	4dd\	-is	4B-/	.	4f\	.	16B-\LL	.	4f\	4dd\	.
.	.	.	.	.	.	.	.	.	.	.	.	16A-\	.	.	.	.
.	.	.	.	.	.	.	.	.	.	.	.	16G\	.	.	.	.
.	.	.	.	.	.	.	.	.	.	.	.	16F\JJ	.	.	.	.
=29	=29	=29	=29	=29	=29	=29	=29	=29	=29	=29	=29	=29	=29	=29	=29	=29
!	!	!	!	!	!	!	!	!	!	!	!	!LO:TX:t=P:problem=mixed beam	!	!	!	!
8r	.	8r	.	8r	.	8r	.	8e-\L	.	8g\L	.	8E-\L	.	8g\L	16bb-\LL	.
.	.	.	.	.	.	.	.	.	.	.	.	.	.	.	16gg\	.
*	*ij	*	*ij	*	*ij	*	*ij	*	*	*	*	*	*	*	*	*
8G\	lu-	8B-\	lu-	8e-\	lu-	8ee-\	lu-	8e-\	.	8e-\	.	8G\	.	8b-\J	16ee-\	.
.	.	.	.	.	.	.	.	.	.	.	.	.	.	.	16ee-\JJ	.
!	!	!	!	!	!	!	!	!	!	!	!	!	!	!LO:TX:t=P:problem=mixed beam	!	!
8A-\	-ce-	8c\	-ce-	8e-\	-ce-	8cc\L	-ce-	8e-\	.	8e-\	.	8A-\	.	8e-/L	16dd\LL	.
.	.	.	.	.	.	.	.	.	.	.	.	.	.	.	16cc\	.
8A-\	-at	8c\	-at	8a-\	-at	16aa-\L	.	8f\J	.	8a-\J	.	8AA-/J	.	16cc\L	16aa-\	.
.	.	.	.	.	.	16ff\JJ	.	.	.	.	.	.	.	16a-\JJ	16ff\JJ	.
=30	=30	=30	=30	=30	=30	=30	=30	=30	=30	=30	=30	=30	=30	=30	=30	=30
!	!	!	!	!	!	!	!	!	!	!	!	!	!	!LO:LB:g=original	!	!
4B-\	e-	2B-\	e-	4g\	e-	4ee-\	-at	4e-\	.	4g\	.	8BB-/L	.	4g/	4ee-\	.
.	.	.	.	.	.	.	.	.	.	.	.	8BB-/	.	.	.	.
4BB-/	.	.	.	4f\	.	4dd\	e-	4B-/	.	4f\	.	8BB-/	.	4f/	4dd\	.
.	.	.	.	.	.	.	.	.	.	.	.	8BB-/J	.	.	.	.
=31	=31	=31	=31	=31	=31	=31	=31	=31	=31	=31	=31	=31	=31	=31	=31	=31
4E-\	-js	4B-\	-is	4g\	-is	4ee-\	-is	8G/L	.	8e-\L	.	8E-\L	.	8g/L	8ee-\L	.
.	.	.	.	.	.	.	.	8G/	.	8e-\	.	8E-\J	.	8g/	8ee-\	.
4r	.	4r	.	4r	.	4r	.	8G/	.	8e-\	.	8BB-/L	.	8g/	8ee-\	.
.	.	.	.	.	.	.	.	8G/J	.	8e-\J	.	8GG/J	.	8g/J	8ee-\J	.
=32	=32	=32	=32	=32	=32	=32	=32	=32	=32	=32	=32	=32	=32	=32	=32	=32
!LO:TX:a:t=1	!	!	!	!	!	!LO:TX:a:t=1	!	!	!	!	!	!	!	!	!	!
2r	.	2r	.	2r	.	2r	.	2G/	.	2e-\	.	2EE-/	.	2g/	2ee-\	.
*	*Xij	*	*Xij	*	*Xij	*	*Xij	*	*	*	*	*	*	*	*	*
!	!	!	!	!	!	!	!	!	!	!LO:TX:b:t=32	!	!	!	!	!	!
==	==	==	==	==	==	==	==	==	==	==	==	==	==	==	==	==
*-	*-	*-	*-	*-	*-	*-	*-	*-	*-	*-	*-	*-	*-	*-	*-	*-
!!!system-decoration: [(s1,s2,s3)][(s4,s5)][(s6,s7,s8,s9)]
!!!RDF**kern: > = above
!!!RDF**kern: < = below
!!!ENC: Krzysztof Stępień
!!!END: 2020-09-22
!!!ENC: Krzysztof Stępień
!!!END: 2022-01-31
